public/images/tokens/rdpx.svg

<svg width="32" height="32" fill="none" xmlns="http://www.w3.org/2000/svg"><g clip-path="url(#clip0)"><mask id="a" fill="#fff"><path fill-rule="evenodd" clip-rule="evenodd" d="M15.9711 32C24.7917 32 31.9422 24.8366 31.9422 16C31.9422 7.16344 24.7917 0 15.9711 0C13.8039 0 11.7375 0.432446 9.8532 1.2159C8.97859 0.513331 7.86831 0.093067 6.66005 0.093067C3.83889 0.093067 1.55188 2.38421 1.55188 5.21048C1.55188 6.15564 1.80765 7.04095 2.25364 7.80074C0.822476 10.1986 0 13.0031 0 16C0 24.8366 7.15051 32 15.9711 32Z"/></mask><path fill-rule="evenodd" clip-rule="evenodd" d="M15.9711 32C24.7917 32 31.9422 24.8366 31.9422 16C31.9422 7.16344 24.7917 0 15.9711 0C13.8039 0 11.7375 0.432446 9.8532 1.2159C8.97859 0.513331 7.86831 0.093067 6.66005 0.093067C3.83889 0.093067 1.55188 2.38421 1.55188 5.21048C1.55188 6.15564 1.80765 7.04095 2.25364 7.80074C0.822476 10.1986 0 13.0031 0 16C0 24.8366 7.15051 32 15.9711 32Z" fill="#002EFF"/><path d="M9.8532 1.2159L2.96428 9.79162L8.05129 13.878L14.0763 11.3729L9.8532 1.2159ZM2.25364 7.80074L11.6992 13.4383L15.0361 7.84744L11.7401 2.23234L2.25364 7.80074ZM20.9422 16C20.9422 18.7802 18.6978 21 15.9711 21V43C30.8856 43 42.9422 30.8929 42.9422 16H20.9422ZM15.9711 11C18.6978 11 20.9422 13.2198 20.9422 16H42.9422C42.9422 1.10706 30.8856 -11 15.9711 -11V11ZM14.0763 11.3729C14.6461 11.136 15.2791 11 15.9711 11V-11C12.3287 -11 8.82885 -10.2711 5.63007 -8.94113L14.0763 11.3729ZM6.66005 11.0931C5.27172 11.0931 3.97058 10.6 2.96428 9.79162L16.7421 -7.35981C13.9866 -9.57332 10.4649 -10.9069 6.66005 -10.9069V11.0931ZM12.5519 5.21048C12.5519 8.44059 9.93275 11.0931 6.66005 11.0931V-10.9069C-2.25498 -10.9069 -9.44812 -3.67217 -9.44812 5.21048H12.5519ZM11.7401 2.23234C12.2586 3.1156 12.5519 4.14599 12.5519 5.21048H-9.44812C-9.44812 8.16528 -8.64325 10.9663 -7.23283 13.3691L11.7401 2.23234ZM11 16C11 15.0416 11.2575 14.1782 11.6992 13.4383L-7.19189 2.16317C-9.61258 6.21896 -11 10.9645 -11 16H11ZM15.9711 21C13.2444 21 11 18.7802 11 16H-11C-11 30.8929 1.05664 43 15.9711 43V21Z" fill="#002EFF" mask="url(#a)"/><path fill-rule="evenodd" clip-rule="evenodd" d="M8.91376 12.3642L12.843 6.22552L6.98548 12.0937C6.49811 12.5819 6.7274 13.4161 7.39558 13.5855L10.5003 14.373C10.2231 14.8095 9.90914 15.36 9.66515 15.9435C9.44162 16.478 9.25524 17.0899 9.23678 17.6961C9.21787 18.3167 9.37677 18.9818 9.90068 19.5067C10.6879 20.2953 11.2595 20.5704 11.7161 20.7901C11.75 20.8065 11.7833 20.8225 11.816 20.8384C12.0285 20.9417 12.1853 21.0265 12.3518 21.1598C12.5199 21.2944 12.724 21.5002 12.9861 21.8612C13.0328 21.9255 13.0822 21.9942 13.1343 22.0666C13.7058 22.8612 14.6029 24.1082 15.7604 24.936C16.4063 25.3979 17.173 25.7607 18.0495 25.8317C18.9375 25.9037 19.8647 25.67 20.8085 25.0611C21.7124 24.4779 22.3081 23.8281 22.5883 23.0714C22.8706 22.3093 22.7869 21.5625 22.5817 20.885C22.3937 20.2646 22.0799 19.6319 21.7871 19.0414L21.7319 18.9299C21.4116 18.283 21.1095 17.6577 20.9084 17.003C20.5159 15.7249 20.7821 15.1712 20.9495 14.9519C21.0477 14.8233 21.1609 14.744 21.2488 14.6971C21.2924 14.6739 21.3273 14.66 21.3465 14.6532L21.3568 14.6496L21.3752 14.6453L21.4068 14.6349L21.407 14.6349L21.5458 14.5892L21.9121 14.4685C22.2153 14.3684 22.6204 14.2343 23.0275 14.0984C23.4341 13.9626 23.8448 13.8243 24.1582 13.7161C24.3143 13.6622 24.4502 13.6145 24.5506 13.5777C24.5999 13.5596 24.647 13.5419 24.6858 13.5261C24.7042 13.5187 24.7298 13.508 24.7562 13.4956C24.7689 13.4897 24.7913 13.4788 24.8173 13.4641L24.8185 13.4635C24.8305 13.4569 24.911 13.4123 24.9899 13.3332C25.3055 13.0171 25.2045 12.6296 25.1941 12.5897L25.1936 12.5878C25.1694 12.493 25.1326 12.4246 25.121 12.4031C25.0917 12.3494 25.0614 12.3086 25.051 12.2946C25.0236 12.2579 24.9931 12.222 24.97 12.1953C24.9197 12.1373 24.8507 12.0619 24.7706 11.9763C24.6747 11.8738 22.8121 9.98353 21.2473 8.39555C20.164 7.29611 19.2234 6.34156 19.1107 6.22552C19.1241 6.23926 20.1261 7.81871 21.118 9.38213C22.09 10.9141 23.0521 12.4307 23.0647 12.4437C22.8943 12.5011 22.7152 12.5612 22.536 12.621C22.1311 12.7562 21.7278 12.8897 21.4256 12.9895L21.0608 13.1097L20.9435 13.1483L20.9268 13.153C20.8994 13.161 20.8649 13.1719 20.8245 13.1864C20.7439 13.2151 20.6383 13.2586 20.5188 13.3223C20.2806 13.4492 19.9773 13.6619 19.7147 14.006C19.1604 14.7322 18.927 15.847 19.4227 17.461C19.6657 18.2522 20.0229 18.9826 20.3393 19.6218L20.3703 19.6844C20.6852 20.3203 20.9451 20.8452 21.0943 21.3374C21.2429 21.8279 21.253 22.2003 21.131 22.5297C21.007 22.8645 20.7006 23.2784 19.9668 23.7519C19.2728 24.1997 18.6809 24.3206 18.1748 24.2796C17.6573 24.2376 17.155 24.0199 16.6635 23.6685C15.7264 22.9983 14.9745 21.9574 14.3819 21.137C14.3347 21.0716 14.2885 21.0076 14.2432 20.9452C13.9199 20.4998 13.6231 20.1842 13.3223 19.9433C13.0199 19.7012 12.7399 19.5566 12.4949 19.4375C12.4597 19.4204 12.4247 19.4035 12.3899 19.3868L12.3898 19.3868L12.3895 19.3866C11.9874 19.1934 11.6009 19.0076 10.9998 18.4055C10.8613 18.2667 10.7806 18.0672 10.7905 17.7436C10.8008 17.4054 10.9115 16.9932 11.0989 16.5452C11.4723 15.6521 12.0649 14.8136 12.3016 14.4968C12.688 13.9795 12.4129 13.2516 11.8065 13.0979L8.91376 12.3642ZM15.4665 18.7307C15.4665 18.7307 14.2686 18.7307 13.47 17.9945C12.6714 17.2583 13.47 15.786 13.47 15.786C13.47 15.786 13.7029 15.9332 14.5847 16.9639C15.4665 17.9945 15.4665 18.7307 15.4665 18.7307Z" fill="#fff"/><ellipse cx="6.66" cy="5.2106" rx="3.9443" ry="3.9514" fill="url(#paint0_radial)"/><path d="M5.1875 7.0891H6.07516V5.7153H6.53606L7.30422 7.0891H8.34551L7.41802 5.60699C7.93013 5.41318 8.22602 4.97995 8.22602 4.42701C8.22602 3.65176 7.67408 3.09882 6.77504 3.09882H5.1875V7.0891ZM6.70107 3.91967C7.06524 3.91967 7.29853 4.12489 7.29853 4.42701C7.29853 4.72913 7.06524 4.93435 6.70107 4.93435H6.07516V3.91967H6.70107Z" fill="#fff"/></g><defs><radialGradient id="paint0_radial" cx="0" cy="0" r="1" gradientUnits="userSpaceOnUse" gradientTransform="matrix(4.91419 6.15385 -6.1514 4.91223 4.3323 2.1013)"><stop stop-color="#22E1FF"/><stop offset="1" stop-color="#22E1FF" stop-opacity="0"/></radialGradient><clipPath id="clip0"><path fill="#fff" d="M0 0H31.9422V32H0z"/></clipPath></defs></svg>

<svg width="32" height="32" fill="none" xmlns="http://www.w3.org/2000/svg"><g clip-path="url(#a)"><mask id="b" fill="#fff"><path fill-rule="evenodd" clip-rule="evenodd" d="M15.971 32c8.82 0 15.971-7.163 15.971-16s-7.15-16-15.97-16c-2.168 0-4.234.432-6.119 1.216A5.081 5.081 0 0 0 6.66.093 5.113 5.113 0 0 0 1.552 5.21a5.1 5.1 0 0 0 .702 2.59A15.947 15.947 0 0 0 0 16c0 8.837 7.15 16 15.971 16Z"/></mask><path fill-rule="evenodd" clip-rule="evenodd" d="M15.971 32c8.82 0 15.971-7.163 15.971-16s-7.15-16-15.97-16c-2.168 0-4.234.432-6.119 1.216A5.081 5.081 0 0 0 6.66.093 5.113 5.113 0 0 0 1.552 5.21a5.1 5.1 0 0 0 .702 2.59A15.947 15.947 0 0 0 0 16c0 8.837 7.15 16 15.971 16Z" fill="#002EFF"/><path d="M9.853 1.216 2.964 9.792l5.087 4.086 6.025-2.505L9.853 1.216ZM2.253 7.8l9.446 5.637 3.337-5.59-3.296-5.616-9.486 5.569ZM20.944 16c0 2.78-2.245 5-4.972 5v22c14.915 0 26.971-12.107 26.971-27h-22Zm-4.972-5c2.727 0 4.971 2.22 4.971 5h22c0-14.893-12.056-27-26.97-27v22Zm-1.895.373A4.9 4.9 0 0 1 15.971 11v-22c-3.642 0-7.142.729-10.34 2.059l8.445 20.314Zm-7.416-.28a5.92 5.92 0 0 1-3.696-1.301L16.742-7.36A16.08 16.08 0 0 0 6.66-10.907v22Zm5.892-5.883c0 3.23-2.62 5.883-5.892 5.883v-22c-8.915 0-16.108 7.235-16.108 16.117h22Zm-.812-2.978c.519.884.812 1.914.812 2.978h-22a16.1 16.1 0 0 0 2.215 8.16L11.74 2.231ZM11 16c0-.958.258-1.822.7-2.562L-7.193 2.163A26.947 26.947 0 0 0-11 16h22Zm4.971 5C13.244 21 11 18.78 11 16h-22c0 14.893 12.057 27 26.971 27V21Z" fill="#002EFF" mask="url(#b)"/><path fill-rule="evenodd" clip-rule="evenodd" d="m8.914 12.364 3.929-6.138-5.858 5.868a.89.89 0 0 0 .41 1.492l3.105.787c-.277.437-.59.987-.835 1.57-.223.535-.41 1.147-.428 1.753-.02.62.14 1.286.664 1.81.787.79 1.358 1.064 1.815 1.284l.1.048c.212.104.37.188.536.322.168.134.372.34.634.701l.148.206c.572.794 1.469 2.041 2.626 2.869.646.462 1.413.825 2.29.896.887.072 1.815-.162 2.758-.77.904-.584 1.5-1.234 1.78-1.99.283-.763.199-1.51-.006-2.187-.188-.62-.502-1.253-.795-1.844l-.055-.111c-.32-.647-.622-1.272-.824-1.927-.392-1.278-.126-1.832.041-2.051a.926.926 0 0 1 .397-.299l.01-.003.02-.005.03-.01h.001l.139-.046.366-.12 1.116-.37c.406-.136.817-.275 1.13-.383a23.777 23.777 0 0 0 .528-.19 1.383 1.383 0 0 0 .131-.062h.002a.781.781 0 0 0 .376-.874l-.001-.002a.807.807 0 0 0-.143-.293 1.825 1.825 0 0 0-.081-.1 8.38 8.38 0 0 0-.2-.219c-.095-.102-1.958-1.992-3.523-3.58-1.083-1.1-2.024-2.054-2.136-2.17.013.013 1.015 1.593 2.007 3.156.972 1.532 1.934 3.049 1.947 3.062a198.353 198.353 0 0 1-1.64.545l-.364.12-.117.04-.017.004a2.28 2.28 0 0 0-.408.17c-.238.126-.542.339-.804.683-.555.726-.788 1.841-.292 3.455.243.791.6 1.522.916 2.16l.031.063c.315.636.575 1.161.724 1.653.149.49.159.863.037 1.193-.124.334-.43.748-1.164 1.222-.694.448-1.286.569-1.792.528-.518-.042-1.02-.26-1.512-.611-.937-.67-1.688-1.712-2.281-2.532l-.139-.192c-.323-.445-.62-.76-.92-1.002a4.162 4.162 0 0 0-.828-.506l-.105-.05c-.403-.194-.79-.38-1.39-.982-.139-.138-.22-.338-.21-.661.01-.339.122-.75.309-1.199.373-.893.966-1.731 1.203-2.048a.893.893 0 0 0-.495-1.4l-2.893-.733Zm6.553 6.367s-1.198 0-1.997-.737c-.799-.736 0-2.208 0-2.208s.233.147 1.115 1.178c.881 1.03.881 1.767.881 1.767Z" fill="#fff"/><ellipse cx="6.66" cy="5.211" rx="3.944" ry="3.951" fill="url(#c)"/><path d="M5.188 7.09h.887V5.714h.461l.768 1.374h1.042l-.928-1.482c.512-.194.808-.627.808-1.18 0-.775-.552-1.328-1.451-1.328H5.187v3.99ZM6.7 3.92c.364 0 .598.205.598.507 0 .302-.234.507-.598.507h-.626V3.92h.626Z" fill="#fff"/></g><defs><radialGradient id="c" cx="0" cy="0" r="1" gradientUnits="userSpaceOnUse" gradientTransform="matrix(4.91419 6.15385 -6.1514 4.91223 4.332 2.101)"><stop stop-color="#22E1FF"/><stop offset="1" stop-color="#22E1FF" stop-opacity="0"/></radialGradient><clipPath id="a"><path fill="#fff" d="M0 0h31.942v32H0z"/></clipPath></defs></svg>
